src/assets/images/illustrations/polls.-pink.svg

<svg width="165" height="175" viewBox="0 0 165 175" fill="none" xmlns="http://www.w3.org/2000/svg">
<ellipse cx="82.3246" cy="81.1831" rx="82.3246" ry="81.1831" fill="#F6ECF3"/>
<path d="M83.3906 146.257L83.773 142.029C84.18 137.528 86.2767 135.925 89.2896 133.44L94.2486 129.477C102.522 122.781 109.437 115.69 110.423 104.779C112.027 87.0473 98.9479 77.511 82.7654 76.0879C66.9978 74.7013 52.9675 81.8537 51.4381 98.7666L69.6952 100.372C70.3886 94.2465 75.6515 91.5473 81.3223 92.046C87.408 92.5812 91.6393 96.6652 91.0719 102.939C90.4922 109.35 86.8644 112.468 80.8632 117.164L74.1088 122.482C69.3005 126.321 68.024 129.646 67.5059 135.374L66.6549 144.785L83.3906 146.257ZM82.166 172.133L63.2173 170.467L64.8947 151.917L83.8434 153.583L82.166 172.133Z" fill="#EFC5DE"/>
<line x1="1" y1="-1" x2="18.5661" y2="-1" transform="matrix(-0.119617 0.99282 -0.993206 -0.116368 88.1217 33.7425)" stroke="#DA6CA2" stroke-width="2" stroke-linecap="round"/>
<line x1="1" y1="-1" x2="5.84812" y2="-1" transform="matrix(-0.119617 0.99282 -0.993206 -0.116368 89.5885 20.5403)" stroke="#DA6CA2" stroke-width="2" stroke-linecap="round"/>
<line x1="1" y1="-1" x2="12.772" y2="-1" transform="matrix(0.640029 0.76835 -0.777044 0.629446 45.8009 55.5088)" stroke="#DA6CA2" stroke-width="2" stroke-linecap="round"/>
<line x1="1" y1="-1" x2="3.91837" y2="-1" transform="matrix(0.640029 0.76835 -0.777044 0.629446 40.7643 49.4626)" stroke="#DA6CA2" stroke-width="2" stroke-linecap="round"/>
<line x1="1" y1="-1" x2="12.8296" y2="-1" transform="matrix(0.841463 -0.540315 0.551015 0.834495 44.3401 137.561)" stroke="#DA6CA2" stroke-width="2" stroke-linecap="round"/>
<line x1="1" y1="-1" x2="3.93894" y2="-1" transform="matrix(0.841463 -0.540315 0.551015 0.834495 37.6906 141.831)" stroke="#DA6CA2" stroke-width="2" stroke-linecap="round"/>
<line x1="1" y1="-1" x2="12.8296" y2="-1" transform="matrix(-0.841463 -0.540315 -0.551015 0.834495 123.717 139.517)" stroke="#DA6CA2" stroke-width="2" stroke-linecap="round"/>
<line x1="1" y1="-1" x2="3.93894" y2="-1" transform="matrix(-0.841463 -0.540315 -0.551015 0.834495 130.367 143.786)" stroke="#DA6CA2" stroke-width="2" stroke-linecap="round"/>
<line x1="1" y1="-1" x2="12.8121" y2="-1" transform="matrix(-0.78595 0.618289 0.628931 0.777461 125.414 65.1652)" stroke="#DA6CA2" stroke-width="2" stroke-linecap="round"/>
<line x1="1" y1="-1" x2="3.93268" y2="-1" transform="matrix(-0.78595 0.618289 0.628931 0.777461 131.615 60.284)" stroke="#DA6CA2" stroke-width="2" stroke-linecap="round"/>
<ellipse cx="21.8214" cy="79.2268" rx="1.98373" ry="1.95622" fill="#EFC5DE"/>
<ellipse cx="118.032" cy="37.7968" rx="1.98373" ry="1.95622" fill="#EFC5DE"/>
<ellipse cx="85.3012" cy="66.1618" rx="1.98373" ry="1.95622" fill="#EFC5DE"/>
<ellipse cx="98.1948" cy="147.694" rx="1.98373" ry="1.95622" fill="#EFC5DE"/>
<ellipse cx="149.771" cy="66.1618" rx="1.98373" ry="1.95622" fill="#EFC5DE"/>
<ellipse cx="139.853" cy="120.308" rx="1.98373" ry="1.95622" fill="#EFC5DE"/>
<ellipse cx="124.975" cy="89.9866" rx="1.98373" ry="1.95622" fill="#EFC5DE"/>
<ellipse cx="60.5039" cy="31.9281" rx="1.98373" ry="1.95622" fill="#EFC5DE"/>
<ellipse cx="37.6914" cy="113.46" rx="1.98373" ry="1.95622" fill="#EFC5DE"/>
</svg>

<svg width="165" height="175" fill="none" xmlns="http://www.w3.org/2000/svg"><ellipse cx="82.325" cy="81.183" rx="82.325" ry="81.183" fill="#F6ECF3"/><path d="m83.39 146.257.383-4.228c.407-4.501 2.504-6.104 5.517-8.589l4.959-3.963c8.273-6.696 15.188-13.787 16.174-24.698 1.604-17.732-11.475-27.268-27.658-28.691-15.767-1.387-29.797 5.766-31.327 22.679l18.257 1.605c.694-6.126 5.957-8.825 11.627-8.326 6.086.535 10.317 4.62 9.75 10.893-.58 6.411-4.208 9.529-10.209 14.225l-6.754 5.318c-4.808 3.839-6.085 7.164-6.603 12.892l-.851 9.411 16.736 1.472Zm-1.224 25.876-18.949-1.666 1.678-18.55 18.948 1.666-1.677 18.55Z" fill="#EFC5DE"/><path transform="matrix(-.11962 .99282 -.9932 -.11637 88.122 33.742)" stroke="#DA6CA2" stroke-width="2" stroke-linecap="round" d="M1-1h17.566"/><path transform="matrix(-.11962 .99282 -.9932 -.11637 89.588 20.54)" stroke="#DA6CA2" stroke-width="2" stroke-linecap="round" d="M1-1h4.848"/><path transform="matrix(.64003 .76835 -.77704 .62945 45.8 55.509)" stroke="#DA6CA2" stroke-width="2" stroke-linecap="round" d="M1-1h11.772"/><path transform="matrix(.64003 .76835 -.77704 .62945 40.764 49.463)" stroke="#DA6CA2" stroke-width="2" stroke-linecap="round" d="M1-1h2.918"/><path transform="matrix(.84146 -.54031 .55102 .8345 44.34 137.561)" stroke="#DA6CA2" stroke-width="2" stroke-linecap="round" d="M1-1h11.83"/><path transform="matrix(.84146 -.54031 .55102 .8345 37.69 141.831)" stroke="#DA6CA2" stroke-width="2" stroke-linecap="round" d="M1-1h2.939"/><path transform="matrix(-.84146 -.54031 -.55102 .8345 123.717 139.517)" stroke="#DA6CA2" stroke-width="2" stroke-linecap="round" d="M1-1h11.83"/><path transform="matrix(-.84146 -.54031 -.55102 .8345 130.367 143.786)" stroke="#DA6CA2" stroke-width="2" stroke-linecap="round" d="M1-1h2.939"/><path transform="matrix(-.78595 .61829 .62893 .77746 125.414 65.165)" stroke="#DA6CA2" stroke-width="2" stroke-linecap="round" d="M1-1h11.812"/><path transform="matrix(-.78595 .61829 .62893 .77746 131.615 60.284)" stroke="#DA6CA2" stroke-width="2" stroke-linecap="round" d="M1-1h2.933"/><ellipse cx="21.821" cy="79.227" rx="1.984" ry="1.956" fill="#EFC5DE"/><ellipse cx="118.032" cy="37.797" rx="1.984" ry="1.956" fill="#EFC5DE"/><ellipse cx="85.301" cy="66.162" rx="1.984" ry="1.956" fill="#EFC5DE"/><ellipse cx="98.195" cy="147.694" rx="1.984" ry="1.956" fill="#EFC5DE"/><ellipse cx="149.771" cy="66.162" rx="1.984" ry="1.956" fill="#EFC5DE"/><ellipse cx="139.853" cy="120.308" rx="1.984" ry="1.956" fill="#EFC5DE"/><ellipse cx="124.975" cy="89.987" rx="1.984" ry="1.956" fill="#EFC5DE"/><ellipse cx="60.504" cy="31.928" rx="1.984" ry="1.956" fill="#EFC5DE"/><ellipse cx="37.691" cy="113.46" rx="1.984" ry="1.956" fill="#EFC5DE"/></svg>
